src/components/Home/HowItWorks/assets/how-scan.svg

<svg width="70" height="58" viewBox="0 0 70 58" fill="none" xmlns="http://www.w3.org/2000/svg">
<path d="M70.0009 57.5585H25.6875V0H56.8637L69.9998 13.1362V57.5585H70.0009Z" fill="white"/>
<path d="M68.6374 15.0686H54.9297V1.36084H57.6515L68.6374 12.3468V15.0686Z" fill="#B69538"/>
<path d="M5.33194 57.7603C3.96536 57.7603 2.59991 57.2409 1.55995 56.2009C-0.519982 54.121 -0.519982 50.7369 1.55995 48.6569L13.6154 36.6016L21.1594 44.1455L9.10394 56.2009C8.06398 57.2397 6.69739 57.7603 5.33194 57.7603Z" fill="#B69538"/>
<path d="M70.0009 57.5585H25.6875V0H56.8637L69.9998 13.1362V57.5585H70.0009ZM28.4105 54.8367H67.2803V14.2646L55.7375 2.72182H28.4105V54.8367Z" fill="#010101"/>
<path d="M62.4662 34.7201H57.7461V37.4419H62.4662V34.7201Z" fill="#010101"/>
<path d="M55.0771 35.1443H49.3828V37.8661H55.0771V35.1443Z" fill="#010101"/>
<path d="M55.0792 42.6077H33.6562V45.3295H55.0792V42.6077Z" fill="#010101"/>
<path d="M62.4673 18.946H58.4141V21.6679H62.4673V18.946Z" fill="#010101"/>
<path d="M62.4665 26.8337H51.5781V29.5555H62.4665V26.8337Z" fill="#010101"/>
<path d="M5.33194 57.7603C3.96536 57.7603 2.59991 57.2409 1.55995 56.2009C-0.519982 54.121 -0.519982 50.7369 1.55995 48.6569L13.6154 36.6016L21.1594 44.1455L9.10394 56.2009C8.06398 57.2397 6.69739 57.7603 5.33194 57.7603ZM13.6154 40.4507L3.4845 50.5815C2.46608 51.5999 2.46608 53.2568 3.4845 54.2752C4.50292 55.2936 6.15983 55.2936 7.17825 54.2752L17.3091 44.1444L13.6154 40.4507Z" fill="#010101"/>
<path d="M30.0801 50.9525C30.079 50.9525 30.0801 50.9525 30.0801 50.9525C23.8551 50.9525 18.0089 48.5334 13.6165 44.1422C4.53928 35.065 4.53928 20.2935 13.6165 11.2162C22.6949 2.13781 37.4654 2.13895 46.5426 11.2162C55.6199 20.2935 55.6199 35.065 46.5426 44.1422C42.1514 48.5346 36.304 50.9525 30.0801 50.9525Z" fill="white"/>
<path d="M30.0836 40.216C26.7096 40.216 23.5398 38.905 21.1594 36.5245C16.2385 31.6037 16.2385 23.597 21.1594 18.6762C26.0802 13.7554 34.0869 13.7554 39.0077 18.6762C43.9286 23.597 43.9286 31.6037 39.0077 36.5245C36.6273 38.905 33.4575 40.216 30.0836 40.216Z" fill="#B69538"/>
<path d="M30.0783 48.344C30.0771 48.344 30.0783 48.344 30.0783 48.344C24.5496 48.344 19.3589 46.1971 15.4599 42.2981C7.39879 34.237 7.39879 21.1213 15.4599 13.0613C23.521 5.00023 36.6367 5.00023 44.6978 13.0613C52.7589 21.1224 52.7589 34.2382 44.6978 42.2993C40.7977 46.1971 35.6058 48.344 30.0783 48.344ZM30.0783 9.73619C25.4807 9.73619 20.8842 11.4861 17.3844 14.9859C10.3848 21.9855 10.3848 33.374 17.3844 40.3736C20.7697 43.7589 25.2777 45.6222 30.0783 45.6222C34.8789 45.6222 39.3868 43.7577 42.7721 40.3736C49.7717 33.374 49.7717 21.9855 42.7721 14.9859C39.2723 11.4861 34.6747 9.73619 30.0783 9.73619Z" fill="#010101"/>
<path d="M30.0829 42.0974C26.3892 42.0974 22.6954 40.6911 19.8829 37.8797C17.1622 35.159 15.6641 31.5367 15.6641 27.6797C15.6641 23.8227 17.1622 20.2004 19.8829 17.4797C22.6036 14.759 26.2258 13.2609 30.0829 13.2609C33.9399 13.2609 37.5622 14.759 40.2829 17.4797C45.9069 23.1036 45.9069 32.2546 40.2829 37.8786C37.4704 40.6911 33.7766 42.0974 30.0829 42.0974ZM30.0829 15.9827C26.9528 15.9827 24.0144 17.1973 21.8074 19.4042C19.6005 21.61 18.3859 24.5496 18.3859 27.6797C18.3859 30.8098 19.6005 33.7482 21.8074 35.9552C26.3699 40.5176 33.7948 40.5176 38.3572 35.9552C42.9197 31.3927 42.9197 23.9678 38.3572 19.4054C36.1514 17.1984 33.2118 15.9827 30.0829 15.9827Z" fill="#010101"/>
<path d="M25.905 23.5052L23.9805 21.5806C25.6079 19.9532 27.774 19.0573 30.0796 19.0573C32.3864 19.0573 34.5525 19.9532 36.1788 21.5806L34.2542 23.5052C33.1417 22.3926 31.6583 21.7791 30.0796 21.7791C28.501 21.7791 27.0187 22.3915 25.905 23.5052Z" fill="#010101"/>
<path d="M68.6374 15.0686H54.9297V1.36084H57.6515V12.3468H68.6374V15.0686Z" fill="#010101"/>
</svg>

<svg width="70" height="58" fill="none" xmlns="http://www.w3.org/2000/svg"><path d="M70 57.559H25.688V0h31.177L70 13.136v44.422z" fill="#fff"/><path d="M68.637 15.069H54.93V1.36h2.721l10.986 10.986v2.722zM5.332 57.76A5.316 5.316 0 0 1 1.56 56.2a5.34 5.34 0 0 1 0-7.543l12.055-12.055 7.544 7.544L9.104 56.2a5.323 5.323 0 0 1-3.772 1.56z" fill="#B69538"/><path d="M70 57.559H25.688V0h31.177L70 13.136v44.422zm-41.59-2.722h38.87V14.265L55.737 2.722H28.41v52.115z" fill="#010101"/><path d="M62.466 34.72h-4.72v2.722h4.72V34.72zm-7.389.424h-5.694v2.722h5.694v-2.722zm.002 7.464H33.656v2.722H55.08v-2.722zm7.388-23.662h-4.053v2.722h4.053v-2.722zm0 7.888H51.578v2.721h10.889v-2.721zM5.332 57.76A5.316 5.316 0 0 1 1.56 56.2a5.34 5.34 0 0 1 0-7.543l12.055-12.055 7.544 7.544L9.104 56.2a5.323 5.323 0 0 1-3.772 1.56zm8.283-17.31L3.485 50.582a2.615 2.615 0 0 0 0 3.694 2.615 2.615 0 0 0 3.693 0l10.131-10.13-3.694-3.694z" fill="#010101"/><path d="M30.08 50.953c-.001 0 0 0 0 0-6.225 0-12.071-2.42-16.463-6.81-9.078-9.078-9.078-23.85 0-32.927 9.078-9.078 23.848-9.077 32.926 0 9.077 9.078 9.077 23.849 0 32.926-4.392 4.393-10.239 6.81-16.463 6.81z" fill="#fff"/><path d="M30.084 40.216a12.536 12.536 0 0 1-8.925-3.691c-4.92-4.921-4.92-12.928 0-17.849 4.921-4.92 12.928-4.92 17.849 0 4.92 4.921 4.92 12.928 0 17.849a12.536 12.536 0 0 1-8.924 3.691z" fill="#B69538"/><path d="M30.078 48.344c-5.528 0-10.72-2.147-14.618-6.046-8.061-8.061-8.061-21.177 0-29.237 8.061-8.06 21.177-8.06 29.238 0 8.06 8.061 8.06 21.177 0 29.238-3.9 3.898-9.092 6.045-14.62 6.045zm0-38.608c-4.597 0-9.194 1.75-12.694 5.25-7 7-7 18.388 0 25.388 3.386 3.385 7.894 5.248 12.694 5.248 4.8 0 9.309-1.864 12.694-5.248 7-7 7-18.389 0-25.388-3.5-3.5-8.097-5.25-12.694-5.25z" fill="#010101"/><path d="M30.083 42.097a14.384 14.384 0 0 1-10.2-4.217 14.327 14.327 0 0 1-4.219-10.2c0-3.857 1.498-7.48 4.219-10.2a14.327 14.327 0 0 1 10.2-4.22c3.857 0 7.48 1.499 10.2 4.22 5.624 5.624 5.624 14.775 0 20.399a14.38 14.38 0 0 1-10.2 4.218zm0-26.114c-3.13 0-6.069 1.214-8.276 3.421a11.62 11.62 0 0 0-3.421 8.276c0 3.13 1.215 6.068 3.421 8.275 4.563 4.563 11.988 4.563 16.55 0 4.563-4.562 4.563-11.987 0-16.55a11.62 11.62 0 0 0-8.274-3.422z" fill="#010101"/><path d="M25.905 23.505l-1.925-1.924a8.567 8.567 0 0 1 6.1-2.524c2.306 0 4.473.896 6.099 2.524l-1.925 1.924a5.865 5.865 0 0 0-4.174-1.726c-1.579 0-3.061.613-4.175 1.726zm42.732-8.436H54.93V1.36h2.721v10.986h10.986v2.722z" fill="#010101"/></svg>
